svgs/light/truck-field-un.svg

<svg xmlns="http://www.w3.org/2000/svg" viewBox="0 0 640 512"><!--! Font Awesome Pro 6.6.0 by @fontawesome - https://fontawesome.com License - https://fontawesome.com/license (Commercial License) Copyright 2024 Fonticons, Inc. --><path d="M96 64C78.3 64 64 78.3 64 96l0 32 0 160 0 64 5.5 0c13.2-37.3 48.7-64 90.5-64s77.4 26.7 90.5 64L352 352l0-128 0-32 0-96c0-17.7-14.3-32-32-32L96 64zM0 160c0-17.7 14.3-32 32-32l0-32c0-35.3 28.7-64 64-64l224 0c32.6 0 59.6 24.4 63.5 56l53.4 0c17.7 0 33.9 9.7 42.3 25.2L521.6 192l22.4 0c35.3 0 64 28.7 64 64l0 96 16 0c8.8 0 16 7.2 16 16s-7.2 16-16 16l-16 0-32 0c0 53-43 96-96 96s-96-43-96-96l-32 0-96 0c0 53-43 96-96 96s-96-43-96-96l-32 0-16 0c-8.8 0-16-7.2-16-16s7.2-16 16-16l16 0 0-64c-17.7 0-32-14.3-32-32l0-96zm384-40l0 72 101.2 0L451 128.4c-2.8-5.2-8.2-8.4-14.1-8.4L384 120zm0 232l5.5 0c13.2-37.3 48.7-64 90.5-64s77.4 26.7 90.5 64l5.5 0 0-96c0-17.7-14.3-32-32-32l-31.7 0c-.2 0-.4 0-.6 0L384 224l0 128zM253.3 135.1l34.7 52 0-43.2c0-8.8 7.2-16 16-16s16 7.2 16 16l0 96c0 7.1-4.6 13.3-11.4 15.3s-14-.6-17.9-6.4l-34.7-52 0 43.2c0 8.8-7.2 16-16 16s-16-7.2-16-16l0-96c0-7.1 4.6-13.3 11.4-15.3s14 .6 17.9 6.4zM128 144l0 64c0 8.8 7.2 16 16 16s16-7.2 16-16l0-64c0-8.8 7.2-16 16-16s16 7.2 16 16l0 64c0 26.5-21.5 48-48 48s-48-21.5-48-48l0-64c0-8.8 7.2-16 16-16s16 7.2 16 16zm96 240A64 64 0 1 0 96 384a64 64 0 1 0 128 0zm256 64a64 64 0 1 0 0-128 64 64 0 1 0 0 128z"/></svg>

<svg xmlns="http://www.w3.org/2000/svg" viewBox="0 0 640 512"><!--! Font Awesome Pro 6.4.0 by @fontawesome - https://fontawesome.com License - https://fontawesome.com/license (Commercial License) Copyright 2023 Fonticons, Inc. --><path d="M96 64C78.3 64 64 78.3 64 96v32V288v64h5.5c13.2-37.3 48.7-64 90.5-64s77.4 26.7 90.5 64H352V224 192 96c0-17.7-14.3-32-32-32H96zM0 160c0-17.7 14.3-32 32-32V96c0-35.3 28.7-64 64-64H320c32.6 0 59.6 24.4 63.5 56h53.4c17.7 0 33.9 9.7 42.3 25.2L521.6 192H544c35.3 0 64 28.7 64 64v96h16c8.8 0 16 7.2 16 16s-7.2 16-16 16H608 576c0 53-43 96-96 96s-96-43-96-96H352 256c0 53-43 96-96 96s-96-43-96-96H32 16c-8.8 0-16-7.2-16-16s7.2-16 16-16H32V288c-17.7 0-32-14.3-32-32V160zm384-40v72H485.2L451 128.4c-2.8-5.2-8.2-8.4-14.1-8.4H384zm0 232h5.5c13.2-37.3 48.7-64 90.5-64s77.4 26.7 90.5 64H576V256c0-17.7-14.3-32-32-32H512.3c-.2 0-.4 0-.6 0H384V352zM253.3 135.1l34.7 52V144c0-8.8 7.2-16 16-16s16 7.2 16 16v96c0 7.1-4.6 13.3-11.4 15.3s-14-.6-17.9-6.4l-34.7-52V240c0 8.8-7.2 16-16 16s-16-7.2-16-16V144c0-7.1 4.6-13.3 11.4-15.3s14 .6 17.9 6.4zM128 144v64c0 8.8 7.2 16 16 16s16-7.2 16-16V144c0-8.8 7.2-16 16-16s16 7.2 16 16v64c0 26.5-21.5 48-48 48s-48-21.5-48-48V144c0-8.8 7.2-16 16-16s16 7.2 16 16zm96 240A64 64 0 1 0 96 384a64 64 0 1 0 128 0zm256 64a64 64 0 1 0 0-128 64 64 0 1 0 0 128z"/></svg>
